;FLAVOR:UltiGCode
;TIME:7210
;MATERIAL:8381
;MATERIAL2:0
;NOZZLE_DIAMETER:0.400000
;NOZZLE_DIAMETER2:0.400000

;Layer count: 198
;LAYER:0
M107
G0 F9000 X33.149 Y43.192 Z0.300
;TYPE:SKIRT
G1 F1200 X34.358 Y42.693 E0.15695
G1 X35.448 Y42.549 E0.28889
G1 X35.953 Y42.551 E0.34949
G1 X41.644 Y42.549 E1.03241
G1 X42.283 Y42.336 E1.11324
G1 X44.426 Y42.328 E1.37040
G1 X45.029 Y42.372 E1.44295
G1 X45.992 Y42.693 E1.56476
G1 X46.928 Y43.441 E1.70854
G1 X47.446 Y44.262 E1.82503
G1 X47.747 Y45.164 E1.93914
G1 X47.751 Y52.325 E2.79846
G1 X49.549 Y52.326 E3.01422
G1 X49.552 Y45.934 E3.78126
G1 X49.569 Y45.132 E3.87752
G1 X49.917 Y44.089 E4.00946
G1 X50.665 Y43.153 E4.15324
G1 X51.486 Y42.635 E4.26973
G1 X52.383 Y42.336 E4.38320
G1 X54.526 Y42.328 E4.64036
G1 X55.129 Y42.372 E4.71291
G1 X55.657 Y42.548 E4.77970
G1 X60.594 Y42.551 E5.37214
G1 X81.640 Y42.550 E7.89766
G1 X82.282 Y42.336 E7.97887
G1 X84.422 Y42.328 E8.23567
G1 X85.027 Y42.371 E8.30845
G1 X85.991 Y42.693 E8.43041
G1 X86.927 Y43.441 E8.57419
G1 X87.445 Y44.262 E8.69068
G1 X87.746 Y45.164 E8.80479
G1 X87.750 Y52.325 E9.66411
G1 X89.548 Y52.326 E9.87987
G1 X89.552 Y45.940 E10.64619
G1 X89.566 Y45.137 E10.74257
G1 X89.916 Y44.089 E10.87515
G1 X90.664 Y43.153 E11.01893
G1 X91.485 Y42.635 E11.13543
G1 X92.382 Y42.336 E11.24889
G1 X94.525 Y42.328 E11.50605
G1 X95.128 Y42.372 E11.57860
G1 X95.673 Y42.554 E11.64755
G1 X99.369 Y42.549 E12.09107
G1 X101.866 Y42.553 E12.39071
G1 X102.947 Y42.697 E12.52158
G1 X104.151 Y43.195 E12.67793
G1 X105.189 Y43.991 E12.83490
G1 X105.985 Y45.029 E12.99187
G1 X106.484 Y46.236 E13.14860
G1 X106.626 Y47.319 E13.27967
G1 X106.632 Y56.422 E14.37203
G1 X106.629 Y59.322 E14.72003
G1 X106.513 Y61.010 E14.92307
G1 X106.138 Y62.776 E15.13971
G1 X105.525 Y64.472 E15.35612
G1 X104.680 Y66.068 E15.57283
G1 X103.624 Y67.530 E15.78925
G1 X102.374 Y68.832 E16.00583
G1 X100.956 Y69.948 E16.22237
G1 X99.562 Y70.760 E16.41596
G1 X98.192 Y71.522 E16.60408
G1 X97.054 Y72.308 E16.77005
G1 X96.004 Y73.198 E16.93522
G1 X95.041 Y74.190 E17.10113
G1 X94.185 Y75.263 E17.26584
G1 X93.431 Y76.425 E17.43206
G1 X92.796 Y77.654 E17.59807
G1 X92.287 Y78.926 E17.76247
G1 X91.902 Y80.251 E17.92805
G1 X91.606 Y81.829 E18.12071
G1 X91.335 Y83.007 E18.26576
G1 X90.772 Y84.321 E18.43731
G1 X89.984 Y85.513 E18.60878
G1 X88.994 Y86.550 E18.78082
G1 X87.833 Y87.390 E18.95278
G1 X86.546 Y88.010 E19.12421
G1 X85.165 Y88.392 E19.29615
G1 X83.883 Y88.506 E19.45060
G1 X82.524 Y88.507 E19.61368
G1 X75.686 Y88.498 E20.43424
G1 X75.220 Y88.654 E20.49321
G1 X74.662 Y88.728 E20.56076
G1 X73.036 Y88.727 E20.75588
G1 X72.782 Y88.734 E20.78637
G1 X72.183 Y88.654 E20.85889
G1 X71.312 Y88.363 E20.96909
G1 X70.376 Y87.615 E21.11287
G1 X69.858 Y86.794 E21.22936
G1 X69.557 Y85.892 E21.34346
G1 X69.553 Y78.731 E22.20278
G1 X67.756 Y78.729 E22.41842
G1 X67.753 Y85.122 E23.18558
G1 X67.736 Y85.924 E23.28185
G1 X67.388 Y86.967 E23.41379
G1 X66.640 Y87.903 E23.55757
G1 X65.819 Y88.421 E23.67406
G1 X65.121 Y88.654 E23.76236
G1 X64.563 Y88.728 E23.82991
G1 X62.937 Y88.727 E24.02503
G1 X62.683 Y88.734 E24.05552
G1 X62.084 Y88.654 E24.12804
G1 X61.615 Y88.497 E24.18739
G1 X54.780 Y88.508 E25.00759
G1 X53.420 Y88.505 E25.17079
G1 X52.537 Y88.427 E25.27716
G1 X51.974 Y88.345 E25.34544
G1 X50.759 Y88.010 E25.49668
G1 X49.471 Y87.390 E25.66821
G1 X48.310 Y86.550 E25.84017
G1 X47.320 Y85.513 E26.01221
G1 X46.532 Y84.321 E26.18369
G1 X45.969 Y83.007 E26.35523
G1 X45.698 Y81.829 E26.50028
G1 X45.402 Y80.251 E26.69294
G1 X45.017 Y78.926 E26.85852
G1 X44.508 Y77.654 E27.02293
G1 X43.873 Y76.425 E27.18893
G1 X43.119 Y75.263 E27.35515
G1 X42.263 Y74.190 E27.51987
G1 X41.300 Y73.198 E27.68577
G1 X40.250 Y72.308 E27.85095
G1 X39.112 Y71.522 E28.01691
G1 X37.742 Y70.760 E28.20503
G1 X36.348 Y69.948 E28.39862
G1 X34.930 Y68.832 E28.61516
G1 X33.680 Y67.530 E28.83175
G1 X32.624 Y66.068 E29.04817
G1 X31.779 Y64.472 E29.26487
G1 X31.166 Y62.776 E29.48128
G1 X30.791 Y61.011 E29.69781
G1 X30.674 Y59.320 E29.90121
G1 X30.675 Y58.076 E30.05049
G1 X30.674 Y47.317 E31.34157
G1 X30.818 Y46.233 E31.47280
G1 X31.316 Y45.025 E31.62959
G1 X32.113 Y43.989 E31.78644
G1 X33.149 Y43.192 E31.94329
G10
G0 F9000 X35.066 Y46.512
;TYPE:WALL-INNER
G11
G1 F1200 X35.349 Y46.396 E31.98000
G1 X35.693 Y46.350 E32.02164
G1 X35.942 Y46.351 E32.05152
G1 X38.052 Y46.350 E32.30472
G1 X38.052 Y54.563 E33.29028
G1 X38.090 Y54.887 E33.32943
G1 X38.208 Y55.224 E33.37228
G1 X38.399 Y55.528 E33.41536
G1 X38.653 Y55.782 E33.45847
G1 X38.957 Y55.973 E33.50155
G1 X39.295 Y56.092 E33.54455
G1 X39.618 Y56.128 E33.58355
G1 X42.395 Y56.128 E33.91679
G1 X42.607 Y56.119 E33.94225
G1 X42.830 Y56.044 E33.97048
G1 X43.062 Y55.859 E34.00609
G1 X43.179 Y55.674 E34.03236
G1 X43.247 Y55.471 E34.05805
G1 X43.253 Y46.132 E35.17873
G1 X43.947 Y46.129 E35.26201
G1 X43.952 Y55.094 E36.33781
G1 X43.960 Y55.477 E36.38378
G1 X44.037 Y55.706 E36.41277
G1 X44.222 Y55.938 E36.44838
G1 X44.407 Y56.055 E36.47465
G1 X44.610 Y56.123 E36.50034
G1 X52.363 Y56.128 E37.43070
G1 X52.700 Y56.121 E37.47115
G1 X52.930 Y56.044 E37.50025
G1 X53.162 Y55.859 E37.53586
G1 X53.279 Y55.674 E37.56213
G1 X53.347 Y55.471 E37.58782
G1 X53.352 Y46.132 E38.70850
G1 X54.047 Y46.129 E38.79190
G1 X54.053 Y55.086 E39.86674
G1 X54.052 Y55.367 E39.90046
G1 X54.071 Y55.509 E39.91765
G1 X54.137 Y55.706 E39.94258
G1 X54.322 Y55.938 E39.97819
G1 X54.507 Y56.055 E40.00446
G1 X54.710 Y56.123 E40.03015
G1 X57.581 Y56.128 E40.37467
G1 X57.686 Y56.128 E40.38727
G1 X58.009 Y56.092 E40.42627
G1 X58.348 Y55.973 E40.46938
G1 X58.652 Y55.782 E40.51246
G1 X58.906 Y55.528 E40.55557
G1 X59.097 Y55.224 E40.59865
G1 X59.216 Y54.885 E40.64177
G1 X59.252 Y54.562 E40.68077
G1 X59.253 Y46.350 E41.66621
G1 X78.052 Y46.350 E43.92209
G1 X78.052 Y54.562 E44.90753
G1 X78.088 Y54.885 E44.94653
G1 X78.207 Y55.224 E44.98964
G1 X78.398 Y55.528 E45.03272
G1 X78.652 Y55.782 E45.07583
G1 X78.956 Y55.973 E45.11891
G1 X79.295 Y56.092 E45.16202
G1 X79.618 Y56.128 E45.20102
G1 X82.396 Y56.128 E45.53438
G1 X82.637 Y56.116 E45.56334
G1 X82.889 Y56.011 E45.59610
G1 X83.134 Y55.770 E45.63734
G1 X83.245 Y55.498 E45.67259
G1 X83.252 Y46.132 E46.79651
G1 X83.946 Y46.129 E46.87979
G1 X83.952 Y55.093 E47.95547
G1 X83.959 Y55.475 E48.00132
G1 X84.036 Y55.706 E48.03054
G1 X84.221 Y55.938 E48.06615
G1 X84.406 Y56.055 E48.09242
G1 X84.609 Y56.123 E48.11811
G1 X92.362 Y56.128 E49.04847
G1 X92.699 Y56.121 E49.08892
G1 X92.929 Y56.044 E49.11802
G1 X93.161 Y55.859 E49.15363
G1 X93.278 Y55.674 E49.17990
G1 X93.346 Y55.471 E49.20559
G1 X93.352 Y46.132 E50.32627
G1 X94.046 Y46.129 E50.40955
G1 X94.052 Y55.093 E51.48523
G1 X94.059 Y55.475 E51.53108
G1 X94.136 Y55.706 E51.56029
G1 X94.321 Y55.938 E51.59590
G1 X94.506 Y56.055 E51.62217
G1 X94.709 Y56.123 E51.64786
G1 X97.580 Y56.128 E51.99238
G1 X97.686 Y56.128 E52.00510
G1 X98.009 Y56.092 E52.04410
G1 X98.347 Y55.973 E52.08710
G1 X98.651 Y55.782 E52.13018
G1 X98.905 Y55.528 E52.17329
G1 X99.096 Y55.224 E52.21637
G1 X99.214 Y54.887 E52.25922
G1 X99.252 Y54.563 E52.29837
G1 X99.252 Y46.349 E53.28405
G1 X101.610 Y46.353 E53.56701
G1 X101.957 Y46.399 E53.60901
G1 X102.236 Y46.514 E53.64522
G1 X102.479 Y46.701 E53.68202
G1 X102.666 Y46.944 E53.71881
G1 X102.781 Y47.223 E53.75502
G1 X102.826 Y47.568 E53.79678
G1 X102.832 Y56.420 E54.85902
G1 X102.829 Y59.184 E55.19070
G1 X102.740 Y60.486 E55.34730
G1 X102.475 Y61.732 E55.50016
G1 X102.043 Y62.929 E55.65287
G1 X101.444 Y64.059 E55.80635
G1 X100.704 Y65.084 E55.95805
G1 X99.815 Y66.009 E56.11200
G1 X98.809 Y66.801 E56.26565
G1 X97.677 Y67.461 E56.42289
G1 X96.183 Y68.291 E56.62798
G1 X94.743 Y69.286 E56.83802
G1 X93.406 Y70.418 E57.04824
G1 X92.187 Y71.674 E57.25827
G1 X91.095 Y73.043 E57.46841
G1 X90.143 Y74.512 E57.67848
G1 X89.338 Y76.067 E57.88860
G1 X88.688 Y77.691 E58.09851
G1 X88.200 Y79.373 E58.30867
G1 X87.888 Y81.041 E58.51230
G1 X87.707 Y81.828 E58.60921
G1 X87.417 Y82.505 E58.69759
G1 X86.999 Y83.137 E58.78851
G1 X86.486 Y83.674 E58.87763
G1 X85.880 Y84.113 E58.96743
G1 X85.203 Y84.439 E59.05760
G1 X84.488 Y84.637 E59.14663
G1 X83.708 Y84.706 E59.24059
G1 X82.526 Y84.707 E59.38243
G1 X79.252 Y84.703 E59.77531
G1 X79.252 Y76.493 E60.76051
G1 X79.214 Y76.169 E60.79966
G1 X79.096 Y75.832 E60.84251
G1 X78.905 Y75.528 E60.88559
G1 X78.651 Y75.274 E60.92869
G1 X78.347 Y75.083 E60.97178
G1 X78.009 Y74.964 E61.01478
G1 X77.686 Y74.928 E61.05378
G1 X74.908 Y74.927 E61.38714
G1 X74.695 Y74.938 E61.41273
G1 X74.474 Y75.012 E61.44070
G1 X74.242 Y75.197 E61.47631
G1 X74.125 Y75.382 E61.50257
G1 X74.057 Y75.585 E61.52826
G1 X74.052 Y84.928 E62.64942
G1 X73.357 Y84.927 E62.73282
G1 X73.351 Y75.963 E63.80850
G1 X73.344 Y75.581 E63.85435
G1 X73.267 Y75.350 E63.88357
G1 X73.082 Y75.118 E63.91918
G1 X72.897 Y75.001 E63.94545
G1 X72.694 Y74.933 E63.97114
G1 X64.941 Y74.927 E64.90150
G1 X64.603 Y74.935 E64.94207
G1 X64.375 Y75.012 E64.97095
G1 X64.143 Y75.197 E65.00655
G1 X64.026 Y75.382 E65.03282
G1 X63.958 Y75.585 E65.05851
G1 X63.953 Y84.928 E66.17967
G1 X63.252 Y84.927 E66.26379
G1 X63.253 Y75.962 E67.33959
G1 X63.245 Y75.579 E67.38556
G1 X63.168 Y75.350 E67.41455
G1 X62.983 Y75.118 E67.45016
G1 X62.798 Y75.001 E67.47643
G1 X62.595 Y74.933 E67.50212
G1 X59.718 Y74.927 E67.84736
G1 X59.614 Y74.928 E67.85984
G1 X59.295 Y74.964 E67.89836
G1 X58.957 Y75.083 E67.94136
G1 X58.653 Y75.274 E67.98445
G1 X58.399 Y75.528 E68.02755
G1 X58.208 Y75.832 E68.07063
G1 X58.090 Y76.169 E68.11348
G1 X58.052 Y76.493 E68.15263
G1 X58.053 Y84.703 E69.13783
G1 X54.781 Y84.708 E69.53047
G1 X53.596 Y84.705 E69.67267
G1 X52.974 Y84.650 E69.74760
G1 X52.749 Y84.618 E69.77487
G1 X52.102 Y84.440 E69.85540
G1 X51.424 Y84.113 E69.94572
G1 X50.818 Y83.674 E70.03552
G1 X50.305 Y83.137 E70.12464
G1 X49.887 Y82.505 E70.21557
G1 X49.597 Y81.828 E70.30395
G1 X49.416 Y81.041 E70.40085
G1 X49.104 Y79.373 E70.60448
G1 X48.616 Y77.691 E70.81465
G1 X47.966 Y76.067 E71.02456
G1 X47.161 Y74.512 E71.23468
G1 X46.209 Y73.043 E71.44474
G1 X45.117 Y71.674 E71.65488
G1 X43.898 Y70.418 E71.86491
G1 X42.561 Y69.286 E72.07514
G1 X41.121 Y68.291 E72.28518
G1 X39.627 Y67.461 E72.49026
G1 X38.495 Y66.801 E72.64751
G1 X37.489 Y66.009 E72.80115
G1 X36.600 Y65.084 E72.95510
G1 X35.860 Y64.059 E73.10681
G1 X35.261 Y62.929 E73.26028
G1 X34.829 Y61.732 E73.41299
G1 X34.564 Y60.486 E73.56585
G1 X34.474 Y59.183 E73.72259
G1 X34.474 Y47.569 E75.11627
G1 X34.520 Y47.225 E75.15791
G1 X34.636 Y46.942 E75.19462
G1 X34.823 Y46.699 E75.23141
G1 X35.066 Y46.512 E75.26821
G0 F9000 X35.664 Y45.950
;TYPE:WALL-OUTER
G1 F1200 X38.453 Y45.950 E75.60289
G1 X38.452 Y54.539 E76.63357
G1 X38.482 Y54.796 E76.66461
G1 X38.571 Y55.049 E76.69680
G1 X38.714 Y55.277 E76.72909
G1 X38.904 Y55.467 E76.76134
G1 X39.132 Y55.610 E76.79363
G1 X39.385 Y55.699 E76.82582
G1 X39.641 Y55.728 E76.85673
G1 X42.386 Y55.728 E77.18613
G1 X42.534 Y55.722 E77.20391
G1 X42.636 Y55.687 E77.21685
G1 X42.760 Y55.588 E77.23589
G1 X42.815 Y55.501 E77.24824
G1 X42.847 Y55.406 E77.26027
G1 X42.852 Y45.738 E78.42043
G1 X44.314 Y45.728 E78.59588
G1 X44.347 Y45.730 E78.59984
G1 X44.352 Y55.090 E79.72304
G1 X44.359 Y55.408 E79.76121
G1 X44.394 Y55.512 E79.77438
G1 X44.493 Y55.636 E79.79342
G1 X44.580 Y55.691 E79.80577
G1 X44.675 Y55.723 E79.81780
G1 X52.359 Y55.728 E80.73988
G1 X52.631 Y55.722 E80.77253
G1 X52.736 Y55.687 E80.78581
G1 X52.860 Y55.588 E80.80485
G1 X52.915 Y55.501 E80.81720
G1 X52.947 Y55.406 E80.82923
G1 X52.952 Y45.973 E81.96119
G1 X52.957 Y45.734 E81.98988
G1 X54.414 Y45.728 E82.16472
G1 X54.447 Y45.730 E82.16869
G1 X54.452 Y55.341 E83.32201
G1 X54.462 Y55.418 E83.33133
G1 X54.494 Y55.512 E83.34324
G1 X54.593 Y55.636 E83.36228
G1 X54.680 Y55.691 E83.37463
G1 X54.775 Y55.723 E83.38666
G1 X57.663 Y55.728 E83.73322
G1 X57.920 Y55.699 E83.76426
G1 X58.173 Y55.610 E83.79644
G1 X58.401 Y55.467 E83.82874
G1 X58.591 Y55.277 E83.86098
G1 X58.734 Y55.049 E83.89328
G1 X58.823 Y54.796 E83.92546
G1 X58.852 Y54.539 E83.95650
G1 X58.853 Y46.076 E84.97206
G1 X58.852 Y45.950 E84.98718
G1 X78.452 Y45.950 E87.33918
G1 X78.452 Y54.539 E88.36986
G1 X78.481 Y54.796 E88.40089
G1 X78.570 Y55.049 E88.43308
G1 X78.713 Y55.277 E88.46537
G1 X78.903 Y55.467 E88.49762
G1 X79.131 Y55.610 E88.52991
G1 X79.384 Y55.699 E88.56210
G1 X79.641 Y55.728 E88.59313
G1 X82.386 Y55.728 E88.92253
G1 X82.548 Y55.720 E88.94200
G1 X82.664 Y55.672 E88.95706
G1 X82.795 Y55.543 E88.97912
G1 X82.845 Y55.419 E88.99517
G1 X82.852 Y45.973 E90.12869
G1 X82.856 Y45.734 E90.15737
G1 X84.313 Y45.728 E90.33221
G1 X84.346 Y45.730 E90.33618
G1 X84.352 Y55.090 E91.45938
G1 X84.358 Y55.407 E91.49743
G1 X84.393 Y55.512 E91.51071
G1 X84.492 Y55.636 E91.52975
G1 X84.579 Y55.691 E91.54210
G1 X84.674 Y55.723 E91.55413
G1 X92.358 Y55.728 E92.47621
G1 X92.630 Y55.722 E92.50886
G1 X92.735 Y55.687 E92.52214
G1 X92.859 Y55.588 E92.54118
G1 X92.914 Y55.501 E92.55353
G1 X92.946 Y55.406 E92.56556
G1 X92.952 Y45.973 E93.69752
G1 X92.956 Y45.734 E93.72621
G1 X94.413 Y45.728 E93.90105
G1 X94.446 Y45.730 E93.90502
G1 X94.452 Y55.090 E95.02822
G1 X94.458 Y55.407 E95.06626
G1 X94.493 Y55.512 E95.07954
G1 X94.592 Y55.636 E95.09858
G1 X94.679 Y55.691 E95.11094
G1 X94.774 Y55.723 E95.12297
G1 X97.663 Y55.728 E95.46965
G1 X97.919 Y55.699 E95.50056
G1 X98.172 Y55.610 E95.53275
G1 X98.400 Y55.467 E95.56504
G1 X98.590 Y55.277 E95.59729
G1 X98.733 Y55.049 E95.62958
G1 X98.822 Y54.796 E95.66177
G1 X98.852 Y54.540 E95.69270
G1 X98.852 Y45.950 E96.72350
G1 X101.641 Y45.953 E97.05818
G1 X102.058 Y46.008 E97.10865
G1 X102.437 Y46.165 E97.15788
G1 X102.764 Y46.416 E97.20734
G1 X103.015 Y46.743 E97.25681
G1 X103.172 Y47.122 E97.30604
G1 X103.226 Y47.539 E97.35650
G1 X103.229 Y59.197 E98.75546
G1 X103.137 Y60.540 E98.91700
G1 X102.861 Y61.843 E99.07682
G1 X102.410 Y63.088 E99.23572
G1 X101.783 Y64.272 E99.39650
G1 X101.008 Y65.345 E99.55533
G1 X100.085 Y66.307 E99.71531
G1 X99.041 Y67.128 E99.87469
G1 X97.878 Y67.806 E100.03623
G1 X96.394 Y68.631 E100.23998
G1 X94.986 Y69.604 E100.44536
G1 X93.679 Y70.711 E100.65090
G1 X92.488 Y71.939 E100.85618
G1 X91.420 Y73.277 E101.06162
G1 X90.489 Y74.713 E101.26699
G1 X89.702 Y76.234 E101.47249
G1 X89.067 Y77.822 E101.67772
G1 X88.589 Y79.466 E101.88317
G1 X88.276 Y81.139 E102.08741
G1 X88.090 Y81.947 E102.18691
G1 X87.766 Y82.702 E102.28550
G1 X87.316 Y83.384 E102.38355
G1 X86.748 Y83.979 E102.48226
G1 X86.086 Y84.458 E102.58031
G1 X85.348 Y84.814 E102.67864
G1 X84.554 Y85.033 E102.77748
G1 X83.732 Y85.106 E102.87651
G1 X78.852 Y85.102 E103.46211
G1 X78.852 Y76.516 E104.49243
G1 X78.822 Y76.260 E104.52336
G1 X78.733 Y76.007 E104.55554
G1 X78.590 Y75.779 E104.58784
G1 X78.400 Y75.589 E104.62008
G1 X78.172 Y75.446 E104.65238
G1 X77.919 Y75.357 E104.68456
G1 X77.663 Y75.328 E104.71548
G1 X74.918 Y75.327 E105.04488
G1 X74.770 Y75.335 E105.06266
G1 X74.668 Y75.369 E105.07556
G1 X74.544 Y75.468 E105.09461
G1 X74.489 Y75.555 E105.10696
G1 X74.457 Y75.650 E105.11899
G1 X74.452 Y85.083 E106.25095
G1 X74.445 Y85.327 E106.28024
G1 X72.987 Y85.327 E106.45520
G1 X72.960 Y85.328 E106.45844
G1 X72.951 Y75.966 E107.58188
G1 X72.945 Y75.649 E107.61993
G1 X72.910 Y75.544 E107.63321
G1 X72.811 Y75.420 E107.65225
G1 X72.724 Y75.365 E107.66460
G1 X72.629 Y75.333 E107.67663
G1 X64.946 Y75.327 E108.59859
G1 X64.673 Y75.334 E108.63136
G1 X64.569 Y75.369 E108.64453
G1 X64.445 Y75.468 E108.66357
G1 X64.390 Y75.555 E108.67592
G1 X64.358 Y75.650 E108.68795
G1 X64.353 Y85.083 E109.81991
G1 X64.346 Y85.327 E109.84920
G1 X62.888 Y85.327 E110.02416
G1 X62.861 Y85.328 E110.02741
G1 X62.853 Y85.321 E110.02868
