;FLAVOR:UltiGCode
;TIME:3007
;MATERIAL:1718
;MATERIAL2:0
;NOZZLE_DIAMETER:0.400000
;NOZZLE_DIAMETER2:0.400000

;Layer count: 188
;LAYER:0
M107
G0 F9000 X58.722 Y40.254 Z0.300
;TYPE:SKIRT
G1 F1200 X59.457 Y39.519 E0.12473
G1 X60.334 Y38.970 E0.24889
G1 X61.300 Y38.631 E0.37174
G1 X62.127 Y38.534 E0.47166
G1 X65.037 Y38.534 E0.82086
G1 X65.929 Y38.570 E0.92799
G1 X66.244 Y38.701 E0.96893
G1 X66.520 Y38.542 E1.00715
G1 X74.819 Y38.534 E2.00303
G1 X75.791 Y38.549 E2.11969
G1 X76.360 Y38.739 E2.19167
G1 X76.966 Y38.541 E2.26818
G1 X80.209 Y38.534 E2.65734
G1 X80.547 Y38.534 E2.69790
G1 X81.374 Y38.631 E2.79782
G1 X82.340 Y38.970 E2.92067
G1 X83.217 Y39.519 E3.04483
G1 X83.952 Y40.254 E3.16956
G1 X84.501 Y41.131 E3.29372
G1 X84.840 Y42.097 E3.41657
G1 X84.937 Y42.924 E3.51649
G1 X84.937 Y60.344 E5.60689
G1 X84.840 Y61.171 E5.70681
G1 X84.501 Y62.137 E5.82966
G1 X83.952 Y63.014 E5.95382
G1 X83.217 Y63.749 E6.07856
G1 X82.340 Y64.298 E6.20272
G1 X81.374 Y64.637 E6.32557
G1 X80.937 Y64.688 E6.37836
G1 X80.937 Y71.469 E7.19208
G1 X80.926 Y72.589 E7.32649
G1 X80.521 Y73.777 E7.47711
G1 X79.694 Y74.811 E7.63599
G1 X78.776 Y75.391 E7.76630
G1 X77.772 Y75.726 E7.89331
G1 X75.527 Y75.735 E8.16271
G1 X74.859 Y75.685 E8.24309
G1 X73.782 Y75.326 E8.37932
G1 X72.739 Y74.491 E8.53965
G1 X72.159 Y73.573 E8.66996
G1 X71.829 Y72.583 E8.79518
G1 X71.816 Y71.495 E8.92575
G1 X71.816 Y64.737 E9.73671
G1 X70.809 Y64.736 E9.85755
G1 X70.809 Y71.495 E10.66863
G1 X70.794 Y72.729 E10.81672
G1 X70.324 Y73.850 E10.96259
G1 X69.732 Y74.627 E11.07981
G1 X68.941 Y75.243 E11.20011
G1 X67.789 Y75.724 E11.34992
G1 X65.390 Y75.735 E11.63780
G1 X64.581 Y75.670 E11.73520
G1 X63.576 Y75.252 E11.86581
G1 X62.756 Y74.627 E11.98954
G1 X62.161 Y73.820 E12.10985
G1 X61.705 Y72.728 E12.25186
G1 X61.689 Y71.477 E12.40199
G1 X61.689 Y64.683 E13.21727
G1 X61.300 Y64.637 E13.26428
G1 X60.334 Y64.298 E13.38713
G1 X59.457 Y63.749 E13.51129
G1 X58.722 Y63.014 E13.63602
G1 X58.173 Y62.137 E13.76018
G1 X57.834 Y61.171 E13.88303
G1 X57.737 Y60.344 E13.98295
G1 X57.737 Y42.924 E16.07335
G1 X57.834 Y42.097 E16.17327
G1 X58.173 Y41.131 E16.29612
G1 X58.722 Y40.254 E16.42028
G0 F9000 X59.037 Y40.505
G1 F1200 X59.708 Y39.834 E16.53415
G1 X60.508 Y39.332 E16.64749
G1 X61.391 Y39.023 E16.75975
G1 X62.150 Y38.934 E16.85145
G1 X65.029 Y38.934 E17.19693
G1 X65.842 Y38.966 E17.29457
G1 X66.274 Y39.146 E17.35073
G1 X66.628 Y38.942 E17.39976
G1 X74.816 Y38.934 E18.38232
G1 X75.723 Y38.948 E18.49117
G1 X76.358 Y39.160 E18.57151
G1 X77.030 Y38.941 E18.65632
G1 X80.209 Y38.934 E19.03780
G1 X80.524 Y38.934 E19.07560
G1 X81.283 Y39.023 E19.16731
G1 X82.166 Y39.332 E19.27957
G1 X82.966 Y39.834 E19.39290
G1 X83.637 Y40.505 E19.50677
G1 X84.139 Y41.305 E19.62011
G1 X84.448 Y42.188 E19.73237
G1 X84.537 Y42.947 E19.82407
G1 X84.537 Y60.321 E21.90895
G1 X84.448 Y61.080 E22.00066
G1 X84.139 Y61.963 E22.11292
G1 X83.637 Y62.763 E22.22625
G1 X82.966 Y63.434 E22.34013
G1 X82.166 Y63.936 E22.45346
G1 X81.283 Y64.245 E22.56572
G1 X80.537 Y64.332 E22.65585
G1 X80.537 Y71.467 E23.51205
G1 X80.527 Y72.521 E23.63853
G1 X80.165 Y73.582 E23.77306
G1 X79.424 Y74.509 E23.91547
G1 X78.603 Y75.027 E24.03196
G1 X77.706 Y75.326 E24.14543
G1 X75.541 Y75.334 E24.40523
G1 X74.938 Y75.290 E24.47778
G1 X73.977 Y74.969 E24.59936
G1 X73.041 Y74.221 E24.74314
G1 X72.523 Y73.400 E24.85963
G1 X72.228 Y72.516 E24.97146
G1 X72.216 Y71.493 E25.09423
G1 X72.216 Y64.337 E25.95295
G1 X70.409 Y64.336 E26.16979
G1 X70.409 Y71.493 E27.02863
G1 X70.395 Y72.646 E27.16700
G1 X69.974 Y73.648 E27.29742
G1 X69.445 Y74.343 E27.40224
G1 X68.738 Y74.895 E27.50987
G1 X67.708 Y75.324 E27.64376
G1 X65.405 Y75.335 E27.92013
G1 X64.676 Y75.277 E28.00788
G1 X63.778 Y74.902 E28.12466
G1 X63.044 Y74.343 E28.23538
G1 X62.511 Y73.622 E28.34297
G1 X62.104 Y72.645 E28.46998
G1 X62.089 Y71.474 E28.61051
G1 X62.089 Y64.327 E29.46815
G1 X61.391 Y64.245 E29.55249
G1 X60.508 Y63.936 E29.66475
G1 X59.708 Y63.434 E29.77808
G1 X59.037 Y62.763 E29.89195
G1 X58.535 Y61.963 E30.00529
G1 X58.226 Y61.080 E30.11755
G1 X58.137 Y60.321 E30.20925
G1 X58.137 Y42.947 E32.29413
G1 X58.226 Y42.188 E32.38584
G1 X58.535 Y41.305 E32.49810
G1 X59.037 Y40.505 E32.61143
G10
G0 F9000 X62.027 Y42.888
;TYPE:WALL-INNER
G11
G1 F1200 X62.091 Y42.824 E32.62229
G1 X62.163 Y42.779 E32.63248
G1 X62.250 Y42.748 E32.64357
G1 X64.688 Y42.734 E32.93613
G1 X64.689 Y51.945 E34.04145
G1 X64.712 Y52.115 E34.06204
G1 X64.791 Y52.306 E34.08684
G1 X64.942 Y52.505 E34.11682
G1 X65.275 Y52.697 E34.16294
G1 X67.079 Y52.705 E34.37942
G1 X67.327 Y52.691 E34.40923
G1 X67.544 Y52.601 E34.43742
G1 X67.707 Y52.473 E34.46229
G1 X67.835 Y52.310 E34.48716
G1 X67.930 Y52.081 E34.51691
G1 X67.939 Y51.423 E34.59588
G1 X67.939 Y42.803 E35.63028
G1 X67.940 Y42.741 E35.63772
G1 X74.734 Y42.734 E36.45300
G1 X74.735 Y51.938 E37.55748
G1 X74.751 Y52.086 E37.57535
G1 X74.812 Y52.256 E37.59702
G1 X74.907 Y52.407 E37.61843
G1 X75.058 Y52.557 E37.64397
G1 X75.353 Y52.700 E37.68331
G1 X77.126 Y52.705 E37.89607
G1 X77.373 Y52.691 E37.92576
G1 X77.587 Y52.602 E37.95357
G1 X77.756 Y52.473 E37.97908
G1 X77.883 Y52.306 E38.00426
G1 X77.976 Y52.081 E38.03347
G1 X77.985 Y51.423 E38.11244
G1 X77.985 Y42.739 E39.15452
G1 X80.214 Y42.734 E39.42200
G1 X80.424 Y42.748 E39.44726
G1 X80.511 Y42.779 E39.45834
G1 X80.583 Y42.824 E39.46853
G1 X80.647 Y42.888 E39.47939
G1 X80.692 Y42.960 E39.48958
G1 X80.723 Y43.047 E39.50066
G1 X80.737 Y60.098 E41.54678
G1 X80.723 Y60.221 E41.56164
G1 X80.692 Y60.308 E41.57272
G1 X80.647 Y60.380 E41.58291
G1 X80.583 Y60.444 E41.59377
G1 X80.511 Y60.489 E41.60396
G1 X80.424 Y60.520 E41.61504
G1 X77.654 Y60.534 E41.94745
G1 X77.386 Y60.542 E41.97962
G1 X77.159 Y60.618 E42.00835
G1 X76.924 Y60.806 E42.04446
G1 X76.810 Y60.991 E42.07054
G1 X76.743 Y61.187 E42.09539
G1 X76.737 Y61.864 E42.17664
G1 X76.737 Y71.446 E43.32648
G1 X76.736 Y71.530 E43.33656
G1 X76.017 Y71.533 E43.42284
G1 X76.016 Y61.300 E44.65080
G1 X76.000 Y61.149 E44.66902
G1 X75.938 Y60.982 E44.69040
G1 X75.846 Y60.834 E44.71131
G1 X75.718 Y60.705 E44.73312
G1 X75.562 Y60.607 E44.75522
G1 X75.359 Y60.539 E44.78091
G1 X67.757 Y60.534 E45.69315
G1 X67.233 Y60.542 E45.75604
G1 X67.007 Y60.636 E45.78541
G1 X66.838 Y60.765 E45.81093
G1 X66.712 Y60.931 E45.83593
G1 X66.616 Y61.159 E45.86562
G1 X66.609 Y61.873 E45.95130
G1 X66.609 Y71.467 E47.10258
G1 X66.608 Y71.529 E47.11003
G1 X65.890 Y71.532 E47.19619
G1 X65.889 Y61.300 E48.42403
G1 X65.869 Y61.117 E48.44612
G1 X65.741 Y60.859 E48.48068
G1 X65.595 Y60.708 E48.50588
G1 X65.433 Y60.606 E48.52886
G1 X65.229 Y60.539 E48.55462
G1 X62.462 Y60.534 E48.88666
G1 X62.250 Y60.520 E48.91216
G1 X62.163 Y60.489 E48.92324
G1 X62.091 Y60.444 E48.93343
G1 X62.027 Y60.380 E48.94429
G1 X61.982 Y60.308 E48.95448
G1 X61.951 Y60.221 E48.96556
G1 X61.937 Y43.170 E51.01168
G1 X61.951 Y43.047 E51.02654
G1 X61.982 Y42.960 E51.03762
G1 X62.027 Y42.888 E51.04781
G0 F9000 X64.945 Y52.502
G0 X67.544 Y52.598
G0 X70.684 Y56.005
G1 F1200 X70.415 Y56.212 E51.08854
G1 X70.208 Y56.481 E51.12927
G1 X70.076 Y56.797 E51.17037
G1 X70.033 Y57.134 E51.21114
G1 X70.076 Y57.471 E51.25190
G1 X70.208 Y57.787 E51.29300
G1 X70.415 Y58.056 E51.33373
G1 X70.684 Y58.263 E51.37446
G1 X71.000 Y58.395 E51.41556
G1 X71.337 Y58.438 E51.45632
G1 X71.674 Y58.395 E51.49709
G1 X71.990 Y58.263 E51.53819
G1 X72.259 Y58.056 E51.57892
G1 X72.466 Y57.787 E51.61965
G1 X72.598 Y57.471 E51.66075
G1 X72.641 Y57.134 E51.70151
G1 X72.598 Y56.797 E51.74228
G1 X72.466 Y56.481 E51.78338
G1 X72.259 Y56.212 E51.82411
G1 X71.990 Y56.005 E51.86484
G1 X71.674 Y55.873 E51.90593
G1 X71.337 Y55.830 E51.94670
G1 X71.000 Y55.873 E51.98747
G1 X70.684 Y56.005 E52.02857
G0 F9000 X70.887 Y56.354
;TYPE:WALL-OUTER
G1 F1200 X70.700 Y56.497 E52.05681
G1 X70.557 Y56.684 E52.08506
G1 X70.466 Y56.901 E52.11330
G1 X70.436 Y57.134 E52.14149
G1 X70.466 Y57.367 E52.16968
G1 X70.557 Y57.584 E52.19792
G1 X70.700 Y57.771 E52.22617
G1 X70.887 Y57.914 E52.25442
G1 X71.104 Y58.005 E52.28265
G1 X71.337 Y58.035 E52.31085
G1 X71.570 Y58.005 E52.33904
G1 X71.787 Y57.914 E52.36727
G1 X71.974 Y57.771 E52.39552
G1 X72.117 Y57.584 E52.42377
G1 X72.208 Y57.367 E52.45201
G1 X72.238 Y57.134 E52.48020
G1 X72.208 Y56.901 E52.50839
G1 X72.117 Y56.684 E52.53663
G1 X71.974 Y56.497 E52.56488
G1 X71.787 Y56.354 E52.59313
G1 X71.570 Y56.263 E52.62136
G1 X71.337 Y56.233 E52.64955
G1 X71.104 Y56.263 E52.67774
G1 X70.887 Y56.354 E52.70598
G0 F9000 X70.704 Y56.115
G0 X67.524 Y52.489
G0 X67.341 Y52.252
G1 F1200 X67.422 Y52.188 E52.71837
G1 X67.486 Y52.107 E52.73076
G1 X67.531 Y51.998 E52.74491
G1 X67.539 Y51.420 E52.81427
G1 X67.539 Y42.798 E53.84891
G1 X67.544 Y42.341 E53.90376
G1 X74.790 Y42.334 E54.77328
G1 X75.130 Y42.339 E54.81408
G1 X75.135 Y51.916 E55.96332
G1 X75.144 Y51.995 E55.97286
G1 X75.174 Y52.080 E55.98368
G1 X75.222 Y52.156 E55.99447
G1 X75.293 Y52.226 E56.00643
G1 X75.445 Y52.300 E56.02672
G1 X77.115 Y52.305 E56.22712
G1 X77.282 Y52.296 E56.24719
G1 X77.386 Y52.253 E56.26069
G1 X77.470 Y52.188 E56.27344
G1 X77.533 Y52.105 E56.28594
G1 X77.577 Y51.998 E56.29983
G1 X77.585 Y51.420 E56.36919
G1 X77.585 Y42.798 E57.40383
G1 X77.589 Y42.340 E57.45880
G1 X80.323 Y42.334 E57.78688
G1 X80.514 Y42.356 E57.80995
G1 X80.686 Y42.417 E57.83185
G1 X80.835 Y42.510 E57.85292
G1 X80.961 Y42.636 E57.87431
G1 X81.054 Y42.785 E57.89538
G1 X81.115 Y42.957 E57.91728
G1 X81.137 Y43.148 E57.94036
G1 X81.137 Y60.120 E59.97700
G1 X81.115 Y60.311 E60.00007
G1 X81.054 Y60.483 E60.02197
G1 X80.961 Y60.632 E60.04304
G1 X80.836 Y60.757 E60.06426
G1 X80.686 Y60.851 E60.08550
G1 X80.514 Y60.912 E60.10740
G1 X80.323 Y60.934 E60.13047
G1 X77.660 Y60.934 E60.45003
G1 X77.457 Y60.940 E60.47440
G1 X77.353 Y60.975 E60.48757
G1 X77.228 Y61.075 E60.50678
G1 X77.174 Y61.162 E60.51907
G1 X77.142 Y61.255 E60.53087
G1 X77.137 Y61.866 E60.60419
G1 X77.137 Y71.450 E61.75427
G1 X77.132 Y71.928 E61.81163
G1 X75.654 Y71.934 E61.98899
G1 X75.621 Y71.931 E61.99297
G1 X75.616 Y61.322 E63.26605
G1 X75.607 Y61.241 E63.27583
G1 X75.577 Y61.158 E63.28642
G1 X75.531 Y61.084 E63.29688
G1 X75.467 Y61.020 E63.30774
G1 X75.389 Y60.971 E63.31879
G1 X75.294 Y60.939 E63.33082
G1 X67.760 Y60.934 E64.23490
G1 X67.316 Y60.941 E64.28819
G1 X67.208 Y60.985 E64.30218
G1 X67.124 Y61.050 E64.31493
G1 X67.061 Y61.132 E64.32734
G1 X67.015 Y61.242 E64.34164
G1 X67.009 Y61.875 E64.41761
G1 X67.009 Y71.472 E65.56925
G1 X67.004 Y71.927 E65.62385
G1 X65.528 Y71.934 E65.80097
G1 X65.495 Y71.931 E65.80495
G1 X65.489 Y61.322 E67.07803
G1 X65.479 Y61.231 E67.08902
G1 X65.410 Y61.092 E67.10764
G1 X65.341 Y61.021 E67.11952
G1 X65.262 Y60.971 E67.13074
G1 X65.165 Y60.939 E67.14299
G1 X62.352 Y60.934 E67.48056
G1 X62.160 Y60.912 E67.50375
G1 X61.988 Y60.851 E67.52565
G1 X61.838 Y60.757 E67.54689
G1 X61.713 Y60.632 E67.56810
G1 X61.620 Y60.483 E67.58918
G1 X61.559 Y60.311 E67.61108
G1 X61.537 Y60.120 E67.63415
G1 X61.537 Y43.148 E69.67079
G1 X61.559 Y42.957 E69.69386
G1 X61.620 Y42.785 E69.71576
G1 X61.713 Y42.636 E69.73684
G1 X61.839 Y42.510 E69.75822
G1 X61.988 Y42.417 E69.77930
G1 X62.160 Y42.356 E69.80120
G1 X62.351 Y42.334 E69.82427
G1 X64.957 Y42.334 E70.13699
G1 X65.083 Y42.339 E70.15212
G1 X65.089 Y51.918 E71.30160
G1 X65.101 Y52.010 E71.31273
G1 X65.141 Y52.105 E71.32510
G1 X65.212 Y52.199 E71.33924
G1 X65.383 Y52.298 E71.36295
G1 X67.069 Y52.305 E71.56527
G1 X67.236 Y52.296 E71.58534
G1 X67.341 Y52.252 E71.59900
G0 F9000 X67.670 Y52.679
;TYPE:SKIN
G1 F900 X70.795 Y55.804 E72.12933
G0 F9000 X70.439 Y56.014
G1 F900 X67.260 Y52.835 E72.66883
G0 F9000 X66.702 Y52.843
G1 F900 X70.165 Y56.306 E73.25652
G0 F9000 X69.972 Y56.678
G1 F900 X66.134 Y52.840 E73.90785
G0 F9000 X65.566 Y52.838
G1 F900 X69.896 Y57.168 E74.64267
G0 F9000 X70.300 Y58.138
G1 F900 X62.081 Y49.918 E76.03757
G0 F9000 X62.081 Y49.353
G1 F900 X64.548 Y51.820 E76.45623
G0 F9000 X64.548 Y51.254
G1 F900 X62.080 Y48.786 E76.87507
G0 F9000 X62.079 Y48.220
G1 F900 X64.548 Y50.688 E77.29398
G0 F9000 X64.548 Y50.123
G1 F900 X62.079 Y47.654 E77.71299
G0 F9000 X62.079 Y47.088
G1 F900 X64.548 Y49.557 E78.13199
G0 F9000 X64.548 Y48.991
G1 F900 X62.078 Y46.521 E78.55116
G0 F9000 X62.078 Y45.956
G1 F900 X64.548 Y48.426 E78.97034
G0 F9000 X64.548 Y47.860
G1 F900 X62.077 Y45.389 E79.38968
G0 F9000 X62.076 Y44.823
G1 F900 X64.548 Y47.294 E79.80911
G0 F9000 X64.548 Y46.729
G1 F900 X62.076 Y44.257 E80.22862
G0 F9000 X62.076 Y43.691
G1 F900 X64.548 Y46.163 E80.64813
G0 F9000 X64.548 Y45.597
G1 F900 X62.081 Y43.130 E81.06679
G0 F9000 X62.403 Y42.887
G1 F900 X64.548 Y45.032 E81.43081
G0 F9000 X64.548 Y44.466
G1 F900 X62.966 Y42.884 E81.69929
G0 F9000 X63.528 Y42.881
G1 F900 X64.548 Y43.900 E81.87230
G0 F9000 X64.548 Y43.335
G1 F900 X64.090 Y42.877 E81.95003
G0 F9000 X64.793 Y52.305
G0 X65.277 Y52.691
G0 X67.706 Y52.472
G0 X67.939 Y51.423
G0 X68.078 Y42.905
G1 F900 X74.594 Y49.421 E83.05583
G0 F9000 X74.594 Y48.856
G1 F900 X68.619 Y42.881 E84.06982
G0 F9000 X69.184 Y42.880
G1 F900 X74.594 Y48.290 E84.98793
G0 F9000 X74.594 Y47.724
G1 F900 X69.749 Y42.879 E85.81015
G0 F9000 X70.314 Y42.878
G1 F900 X74.594 Y47.158 E86.53649
G0 F9000 X74.594 Y46.592
G1 F900 X70.879 Y42.878 E87.16686
G0 F9000 X71.444 Y42.877
G1 F900 X74.594 Y46.026 E87.70135
G0 F9000 X74.594 Y45.461
G1 F900 X72.009 Y42.876 E88.14004
G0 F9000 X72.575 Y42.876
G1 F900 X74.594 Y44.895 E88.48268
G0 F9000 X74.594 Y44.329
G1 F900 X73.140 Y42.876 E88.72934
G0 F9000 X73.705 Y42.875
G1 F900 X74.594 Y43.764 E88.88021
G0 F9000 X74.594 Y43.198
G1 F900 X74.270 Y42.874 E88.93520
G0 F9000 X74.909 Y52.405
G0 X75.355 Y52.694
G0 X77.754 Y52.472
G0 X77.985 Y51.423
G0 X78.124 Y43.335
G1 F900 X80.585 Y45.795 E89.35276
G0 F9000 X80.585 Y46.361
G1 F900 X78.123 Y43.900 E89.77049
G0 F9000 X78.123 Y44.464
G1 F900 X80.586 Y46.927 E90.18847
G0 F9000 X80.586 Y47.493
G1 F900 X78.122 Y45.029 E90.60663
G0 F9000 X78.121 Y45.594
G1 F900 X80.586 Y48.059 E91.02495
G0 F9000 X80.587 Y48.626
G1 F900 X78.121 Y46.159 E91.44353
G0 F9000 X78.120 Y46.724
G1 F900 X80.587 Y49.192 E91.86228
G0 F9000 X80.588 Y49.758
G1 F900 X78.119 Y47.289 E92.28128
G0 F9000 X78.119 Y47.854
G1 F900 X80.588 Y50.324 E92.70037
G0 F9000 X80.588 Y50.890
G1 F900 X78.118 Y48.419 E93.11963
G0 F9000 X78.117 Y48.984
G1 F900 X80.589 Y51.456 E93.53914
G0 F9000 X80.589 Y52.022
G1 F900 X78.116 Y49.549 E93.95882
G0 F9000 X78.116 Y50.114
G1 F900 X80.590 Y52.588 E94.37867
G0 F9000 X80.591 Y53.155
G1 F900 X78.115 Y50.679 E94.79887
G0 F9000 X78.114 Y51.244
G1 F900 X80.591 Y53.721 E95.21923
G0 F9000 X80.591 Y54.287
G1 F900 X78.114 Y51.809 E95.63967
G0 F9000 X78.036 Y52.297
G1 F900 X80.592 Y54.853 E96.07344
G0 F9000 X80.592 Y55.419
G1 F900 X77.793 Y52.620 E96.54845
G0 F9000 X77.428 Y52.820
G1 F900 X80.593 Y55.985 E97.08556
G0 F9000 X80.593 Y56.552
G1 F900 X76.886 Y52.844 E97.71475
G0 F9000 X76.318 Y52.842
G1 F900 X80.593 Y57.117 E98.44024
G0 F9000 X80.594 Y57.684
G1 F900 X75.751 Y52.841 E99.26212
G0 F9000 X75.056 Y52.711
G1 F900 X80.594 Y58.250 E100.20204
G0 F9000 X80.595 Y58.816
G1 F900 X68.075 Y46.296 E102.32675
G0 F9000 X68.075 Y45.731
G1 F900 X74.724 Y52.379 E103.45504
G0 F9000 X74.594 Y51.684
G1 F900 X68.076 Y45.166 E104.56118
G0 F9000 X68.077 Y44.601
G1 F900 X74.594 Y51.118 E105.66715
G0 F9000 X74.594 Y50.553
G1 F900 X68.078 Y44.036 E106.77304
G0 F9000 X68.078 Y43.471
G1 F900 X74.594 Y49.987 E107.87884
G0 F9000 X71.964 Y55.842
G1 F900 X68.068 Y51.946 E108.54001
G0 F9000 X67.947 Y52.390
G1 F900 X71.255 Y55.698 E109.10140
G0 F9000 X72.626 Y56.504
G1 F900 X76.826 Y60.704 E109.81416
G0 F9000 X77.158 Y60.470
